packages/ui-icons/src/Basic/24/Museum_24.svg

<svg xmlns="http://www.w3.org/2000/svg" viewBox="0 0 32 32"><path d="m27.6 16 .4-2.13-12-8-12 8L4.4 16H5v10H4v2h11v-6.94a1 1 0 0 1 2 0V28h11v-2h-1V16ZM16 8.25 24.64 14H7.36ZM9 26H7V16h2Zm12 0h-2v-5a3 3 0 1 0-6 .1V26h-2V16h10Zm4 0h-2V16h2Z"/></svg>

<svg id="Ready" xmlns="http://www.w3.org/2000/svg" viewBox="0 0 32 32"><title>Megaicons_work_24_1.8_cp</title><path d="M27.6,16l.4-2.13-12-8-12,8L4.4,16H5V26H4v2H15V21.06a1,1,0,0,1,2,0V28H28V26H27V16ZM16,8.25,24.64,14H7.36ZM9,26H7V16H9Zm12,0H19V21a3,3,0,1,0-6,.1V26H11V16H21Zm4,0H23V16h2Z"/></svg>
